app/images/icons/high-black-arrow.svg

<svg xmlns="http://www.w3.org/2000/svg" preserveAspectRatio="xMidYMid" width="6.1" height="10.97"><path d="M.553 10.967a.557.557 0 01-.411-.183.602.602 0 01.022-.831l4.547-4.475L.164 1.004A.602.602 0 01.142.173.552.552 0 01.943.15L5.92 5.048l.014.014a.545.545 0 01.113.169h.001a.611.611 0 01.052.244v.003a.609.609 0 01-.053.249l-.001.001v.002a.594.594 0 01-.111.164l-.015.014-4.977 4.899a.551.551 0 01-.39.16z" fill="#262626" fill-rule="evenodd"/></svg>

<svg xmlns="http://www.w3.org/2000/svg" xmlns:xlink="http://www.w3.org/1999/xlink" preserveAspectRatio="xMidYMid" width="6.1" height="10.97" viewBox="0 0 6.1 10.97">
  <defs>
    <style>
      .cls-1 {
        fill: #262626;
        fill-rule: evenodd;
      }
    </style>
  </defs>
  <path d="M0.553,10.967 C0.404,10.967 0.254,10.906 0.142,10.784 C0.039,10.670 -0.013,10.525 -0.013,10.380 C-0.013,10.223 0.046,10.069 0.164,9.953 L4.711,5.478 L0.164,1.004 C0.046,0.889 -0.013,0.733 -0.013,0.577 C-0.013,0.432 0.039,0.287 0.142,0.173 C0.358,-0.063 0.716,-0.073 0.943,0.150 L5.920,5.048 C5.925,5.052 5.929,5.057 5.934,5.062 C5.982,5.111 6.021,5.169 6.047,5.231 L6.047,5.231 C6.048,5.231 6.048,5.231 6.048,5.231 C6.082,5.309 6.100,5.392 6.100,5.475 C6.100,5.476 6.100,5.477 6.100,5.478 C6.100,5.564 6.082,5.649 6.047,5.727 L6.047,5.727 C6.047,5.728 6.046,5.728 6.046,5.728 C6.046,5.729 6.046,5.729 6.046,5.729 C6.046,5.729 6.046,5.729 6.046,5.730 C6.019,5.789 5.982,5.845 5.935,5.894 C5.930,5.899 5.925,5.903 5.920,5.908 L0.943,10.807 C0.834,10.915 0.693,10.967 0.553,10.967 Z" class="cls-1"/>
</svg>
